svg/emoji_u1f9a1.svg

<?xml version="1.0" encoding="UTF-8" standalone="no"?>
<!-- Generator: Adobe Illustrator 24.1.2, SVG Export Plug-In . SVG Version: 6.00 Build 0)  -->

<svg
   version="1.1"
   id="Layer_2"
   x="0px"
   y="0px"
   viewBox="0 0 128 128"
   style="enable-background:new 0 0 128 128;"
   xml:space="preserve"
   sodipodi:docname="emoji_u1f9a1.svg"
   inkscape:version="1.2.2 (732a01da63, 2022-12-09)"
   xmlns:inkscape="http://www.inkscape.org/namespaces/inkscape"
   xmlns:sodipodi="http://sodipodi.sourceforge.net/DTD/sodipodi-0.dtd"
   xmlns="http://www.w3.org/2000/svg"
   xmlns:svg="http://www.w3.org/2000/svg"><defs
   id="defs28296" /><sodipodi:namedview
   id="namedview28294"
   pagecolor="#ffffff"
   bordercolor="#000000"
   borderopacity="0.25"
   inkscape:showpageshadow="2"
   inkscape:pageopacity="0.0"
   inkscape:pagecheckerboard="0"
   inkscape:deskcolor="#d1d1d1"
   showgrid="false"
   inkscape:zoom="2.1210938"
   inkscape:cx="-6.8360958"
   inkscape:cy="30.173112"
   inkscape:window-width="1366"
   inkscape:window-height="697"
   inkscape:window-x="-8"
   inkscape:window-y="-8"
   inkscape:window-maximized="1"
   inkscape:current-layer="Layer_2" />
<path
   style="fill:#AFAFAF;"
   d="M29.39,61.37c0,0,0.26-4.98-4.23-4.57c-4.52,0.41-2.88,6.55-2.88,6.55L29.39,61.37z"
   id="path28231" />
<path
   style="fill:#171717;"
   d="M48.56,93.79l-5.99,0.7c0,0,0.3,12.08-0.5,13.38c-0.8,1.3-5.99,4.59-5.99,4.59s-0.5,1.8,2.3,2.8  c2.8,1,8.29,0.6,8.29,0.6l7.89-19.28L48.56,93.79z"
   id="path28233" />
<path
   style="fill:#171717;"
   d="M91.91,94.69c-0.6,0.1-8.39,2.8-8.39,2.8s2.8,10.29,1.1,11.98s-4.79,3.1-2.9,4.39  c1.9,1.3,9.29,1.1,11.29-1s2.2-3.8,2.3-5.89c0.1-2.1-0.2-12.68-0.2-12.68L91.91,94.69z"
   id="path28235" />
<path
   style="fill:#575A5B;"
   d="M46.84,100.06c0,0,0.82,9.89-0.22,11.24c-1.05,1.35-5.47,4.19-5.62,4.72  c-0.15,0.52-0.07,3.9,5.77,3.82s9.74-0.79,12.28-3.86c2.55-3.07,2.25-12.32,2.25-12.32s10.71-0.3,14.08-0.67s7.57-0.67,7.57-0.67  s1.12,4.64,0.52,6.37c-0.6,1.72-2.77,3.22-2.17,3.82c0.6,0.6,3.52-0.22,4.34-2.47c0.82-2.25,0.15-8.16,0.15-8.16  s4.72-0.67,7.64-1.27c2.92-0.6,4.42-0.82,4.42-0.82s1.2,6.89,0.75,9.06c-0.45,2.17-5.84,7.19-3.9,7.64c1.95,0.45,5.58,1.16,9.14,0.3  c2.81-0.68,5.33-3.36,5.58-5.02c0.11-0.75,0.2-2.24,0.22-3.63c0.04-2.1-0.41-17.19-0.41-17.19l-53.71-23l-7.72-1.27  c0,0-2.4-1.05-4.19-1.87c-1.8-0.82-3.97-1.42-3.97-1.42s0-5.02-2.4-5.24c-2.4-0.22-3.97,2.85-3.97,2.85l-6.44,1.27L16.05,67.4  l-4.49,8.16l-4.34,0.52c0,0-5.84,0.94-6.52,3.67c-0.61,2.49,0.97,3.3,0.97,3.3s0.11,1.61,0.79,2.66s1.84,1.24,1.84,1.24  s1.07,1.74,2.4,2.32c2.92,1.27,5.18,0.67,8.24,0.45c3.15-0.22,6.97-0.52,6.97-0.52s6.89,3,11.09,4.72s8.69,3.82,8.69,3.82  s0.07,7.72-0.52,9.89c-0.6,2.17-5.84,3.67-5.69,4.79c0.15,1.12,2.85-0.07,4.49-0.97s2.77-2.25,3.15-3.52  c0.37-1.27,0.45-9.66,0.45-9.66L46.84,100.06z"
   id="path28237" />
<path
   style="fill:#DFDFDF;"
   d="M113.28,88.55l-2,5.37c0,0,1.37,2.8,3.65,4.94c2,1.89,3.29,2.73,5.39,2.7  c3.1-0.05,8.24-3.82,6.97-5.32c-1.04-1.22-4.94-4.54-4.94-4.54L113.28,88.55z"
   id="path28239" />
<path
   style="fill:#AFAFAF;"
   d="M81.15,56.77c15.43,0.75,24.42,7.72,27.57,14.31c3.15,6.59,4.27,9.89,5.32,11.54  s9.44,10.04,9.44,10.04s-1.91,1.89-5.92,2.55c-3.22,0.52-5.62-0.15-5.62-0.15s-0.62-0.84-1.12-1.6c-0.35-0.52-0.9-1.25-1.87-0.6  c-1.26,0.84-4.19,5.34-9.21,5.64c-6.03,0.36-11.76-1.8-11.76-1.8s0.22,2.77-0.37,2.92c-0.6,0.15-4.83-1.39-6.59-2.36  c-1.45-0.8-4.87-3.18-4.87-3.18s1.65,5.24,1.2,5.77c-0.45,0.52-3.71-0.45-5.92-2.25c-1.49-1.21-7.42-6.37-7.42-6.37  s1.8,5.47,1.35,6.07c-0.45,0.6-4.51-1.2-7.34-4.72c-3.07-3.82-4.79-7.79-5.99-13.63c-1.12-5.48-1.57-7.42-2.25-9.36  s-1.95-2.92-1.95-2.92s3.45,0.15,4.72-0.52C53.8,65.46,67.36,56.09,81.15,56.77z"
   id="path28241" />
<path
   style="fill:#DFDFDF;"
   d="M49.31,84.78c-0.07,0.6-12.16,0.52-15.46,0.67c-3.3,0.15-10.76,2.02-13.83,2.4  c-3.07,0.37-8.16,1.35-10.56,0.97c-2.4-0.37-2.62-0.97-2.55-1.35c0.07-0.37,2.92,0.04,3.52-0.82c0.6-0.86-0.04-1.8-0.9-1.31  s-2.72,0.79-3.92,0.64s-1.92-1.2-1.92-1.84s1.8-0.84,2.52-1.56c0.96-0.96,1.52-2.2,1.37-4.32c-0.1-1.4-0.55-2.05-0.27-2.2  c0.4-0.22,1.45-0.3,2.37-2.67c0.75-1.92,2.27-5.48,5.12-7.62c3.21-2.41,5.94-3.94,11.14-4.72c5.09-0.76,5.51-0.36,5.51-0.36  s1.65-4.72,6.22-3.9s3.11,6.88,3.11,6.88l-2.05-0.32c0,0,0.59-3.07-1.59-3.45c-2.17-0.37-3.11,2.51-3.11,2.51s-8.01,0.79-11.27,2.73  c-3.6,2.15-11.24,8.54-9.14,13.15s11.87,0.07,13.56-1.05c1.69-1.12,6.69-4.7,9.7-3.96c3,0.74,3.98,3.07,6.77,5.52  C45.3,80.27,49.42,83.81,49.31,84.78z"
   id="path28243" />
<path
   style="fill:#191919;"
   d="M24.07,74.78c-0.64,1.69-2.1,2.43-3.9,1.98c-1.55-0.39-2.4-3.07-1.35-5.02  c0.94-1.75,2.77-1.84,4.12-1.35C24.44,70.94,24.76,72.96,24.07,74.78z"
   id="path28245" />

<path
   style="fill:#DFDFDF;"
   d="M33.73,113.02c0.09,0.9,3.33,1.31,3.18-0.45C36.76,110.81,33.62,111.93,33.73,113.02z"
   id="path28249" />
<path
   style="fill:#DFDFDF;"
   d="M35.64,115.83c0.44,0.86,4.04,0.04,3.18-1.72C37.96,112.35,35.04,114.67,35.64,115.83z"
   id="path28251" />
<path
   style="fill:#DFDFDF;"
   d="M39.09,118.04c0.36,0.87,4.42-0.49,3.67-1.8S38.41,116.43,39.09,118.04z"
   id="path28253" />
<path
   style="fill:#DFDFDF;"
   d="M40.81,120.17c0.61,1.03,4.79-0.71,3.56-2.1S40.17,119.09,40.81,120.17z"
   id="path28255" />
<path
   style="fill:#E0E0E0;"
   d="M79.46,113.66c0.29,0.79,3.33,0.04,3-1.05S79.16,112.83,79.46,113.66z"
   id="path28257" />
<path
   style="fill:#E0E0E0;"
   d="M82.04,115.53c0.59,0.44,3.41-1.35,2.1-2.06C82.83,112.76,81.15,114.86,82.04,115.53z"
   id="path28259" />
<path
   style="fill:#E0E0E0;"
   d="M85.04,116.05c1.22,0.37,3.41-1.91,1.87-2.36C85.38,113.24,84.18,115.79,85.04,116.05z"
   id="path28261" />
<path
   style="fill:#E0E0E0;"
   d="M95.9,114.97c-0.87-0.73-3.6,0.86-2.77,1.95C93.95,118,97.06,115.94,95.9,114.97z"
   id="path28263" />
<path
   style="fill:#E0E0E0;"
   d="M95.85,118.65c1.29,0.7,3.79-2.54,2.35-2.97C96.76,115.26,94.82,118.09,95.85,118.65z"
   id="path28265" />
<path
   style="fill:#E0E0E0;"
   d="M101.11,116.02c-1.6-0.23-3.52,2.73-1.8,2.85S102.64,116.24,101.11,116.02z"
   id="path28267" />
<g
   id="g28271">
	<path
   style="fill:#999999;"
   d="M65.79,84.95c-0.31,0-0.63-0.14-0.84-0.41l-2.25-2.85c-0.36-0.46-0.29-1.13,0.18-1.49   c0.46-0.36,1.13-0.28,1.49,0.18l2.25,2.85c0.36,0.46,0.28,1.13-0.18,1.49C66.25,84.87,66.02,84.95,65.79,84.95z"
   id="path28269" />
</g>
<g
   id="g28275">
	<path
   style="fill:#999999;"
   d="M77.77,86.22c-0.24,0-0.48-0.08-0.67-0.24l-3.75-3.07c-0.46-0.37-0.52-1.04-0.15-1.5   c0.37-0.45,1.04-0.52,1.5-0.15l3.75,3.07c0.46,0.37,0.52,1.04,0.15,1.5C78.39,86.09,78.08,86.22,77.77,86.22z"
   id="path28273" />
</g>
<g
   id="g28279">
	<path
   style="fill:#999999;"
   d="M82.12,76.78c-0.21,0-0.42-0.06-0.61-0.19l-3.75-2.62c-0.48-0.34-0.6-1-0.26-1.48   c0.34-0.48,1-0.6,1.48-0.26l3.75,2.62c0.48,0.34,0.6,1,0.26,1.48C82.78,76.62,82.45,76.78,82.12,76.78z"
   id="path28277" />
</g>
<g
   id="g28283">
	<path
   style="fill:#999999;"
   d="M93.5,73.61c-0.22,0-0.44-0.07-0.62-0.2l-3.82-2.77c-0.48-0.35-0.58-1.01-0.24-1.49   c0.34-0.48,1.01-0.58,1.49-0.24l3.82,2.77c0.48,0.35,0.58,1.01,0.24,1.49C94.16,73.46,93.83,73.61,93.5,73.61z"
   id="path28281" />
</g>
<g
   id="g28287">
	<path
   style="fill:#999999;"
   d="M95.6,83.22c-0.17,0-0.34-0.04-0.5-0.12l-3.37-1.8c-0.52-0.28-0.71-0.92-0.44-1.44   c0.28-0.52,0.92-0.71,1.44-0.44l3.37,1.8c0.52,0.28,0.71,0.92,0.44,1.44C96.35,83.02,95.98,83.22,95.6,83.22z"
   id="path28285" />
</g>
<g
   id="g28291">
	<path
   style="fill:#999999;"
   d="M105.02,76.66c-0.17-0.02-0.33-0.08-0.48-0.19l-3.11-2.21c-0.48-0.34-0.59-1.01-0.25-1.48   c0.34-0.48,1-0.59,1.48-0.25l3.11,2.21c0.48,0.34,0.59,1.01,0.25,1.48C105.79,76.55,105.4,76.71,105.02,76.66z"
   id="path28289" />
</g>
</svg>

<?xml version="1.0" encoding="UTF-8" standalone="no"?>
<!DOCTYPE svg PUBLIC "-//W3C//DTD SVG 1.1//EN" "http://www.w3.org/Graphics/SVG/1.1/DTD/svg11.dtd">
<svg width="100%" height="100%" viewBox="0 0 128 128" version="1.1" xmlns="http://www.w3.org/2000/svg" xmlns:xlink="http://www.w3.org/1999/xlink" xml:space="preserve" xmlns:serif="http://www.serif.com/" style="fill-rule:evenodd;clip-rule:evenodd;stroke-linejoin:round;stroke-miterlimit:2;">
    <path id="path28231" d="M29.39,61.37C29.39,61.37 29.65,56.39 25.16,56.8C20.64,57.21 22.28,63.35 22.28,63.35L29.39,61.37Z" style="fill:rgb(175,175,175);fill-rule:nonzero;"/>
    <path id="path28233" d="M48.56,93.79L42.57,94.49C42.57,94.49 42.87,106.57 42.07,107.87C41.27,109.17 36.08,112.46 36.08,112.46C36.08,112.46 35.58,114.26 38.38,115.26C41.18,116.26 46.67,115.86 46.67,115.86L54.56,96.58L48.56,93.79Z" style="fill:rgb(33,33,33);fill-rule:nonzero;"/>
    <path id="path28235" d="M91.91,94.69C91.31,94.79 83.52,97.49 83.52,97.49C83.52,97.49 86.32,107.78 84.62,109.47C82.92,111.16 79.83,112.57 81.72,113.86C83.62,115.16 91.01,114.96 93.01,112.86C95.01,110.76 95.21,109.06 95.31,106.97C95.41,104.87 95.11,94.29 95.11,94.29L91.91,94.69Z" style="fill:rgb(33,33,33);fill-rule:nonzero;"/>
    <path id="path28237" d="M46.84,100.06C46.84,100.06 47.66,109.95 46.62,111.3C45.57,112.65 41.15,115.49 41,116.02C40.85,116.54 40.93,119.92 46.77,119.84C52.61,119.76 56.51,119.05 59.05,115.98C61.6,112.91 61.3,103.66 61.3,103.66C61.3,103.66 72.01,103.36 75.38,102.99C78.75,102.62 82.95,102.32 82.95,102.32C82.95,102.32 84.07,106.96 83.47,108.69C82.87,110.41 80.7,111.91 81.3,112.51C81.9,113.11 84.82,112.29 85.64,110.04C86.46,107.79 85.79,101.88 85.79,101.88C85.79,101.88 90.51,101.21 93.43,100.61C96.35,100.01 97.85,99.79 97.85,99.79C97.85,99.79 99.05,106.68 98.6,108.85C98.15,111.02 92.76,116.04 94.7,116.49C96.65,116.94 100.28,117.65 103.84,116.79C106.65,116.11 109.17,113.43 109.42,111.77C109.53,111.02 109.62,109.53 109.64,108.14C109.68,106.04 109.23,90.95 109.23,90.95L55.52,67.95L47.8,66.68C47.8,66.68 45.4,65.63 43.61,64.81C41.81,63.99 39.64,63.39 39.64,63.39C39.64,63.39 39.64,58.37 37.24,58.15C34.84,57.93 33.27,61 33.27,61L26.83,62.27L16.05,67.4L11.56,75.56L7.22,76.08C7.22,76.08 1.38,77.02 0.7,79.75C0.09,82.24 1.67,83.05 1.67,83.05C1.67,83.05 1.78,84.66 2.46,85.71C3.14,86.76 4.3,86.95 4.3,86.95C4.3,86.95 5.37,88.69 6.7,89.27C9.62,90.54 11.88,89.94 14.94,89.72C18.09,89.5 21.91,89.2 21.91,89.2C21.91,89.2 28.8,92.2 33,93.92C37.2,95.64 41.69,97.74 41.69,97.74C41.69,97.74 41.76,105.46 41.17,107.63C40.57,109.8 35.33,111.3 35.48,112.42C35.63,113.54 38.33,112.35 39.97,111.45C41.61,110.55 42.74,109.2 43.12,107.93C43.49,106.66 43.57,98.27 43.57,98.27L46.84,100.06Z" style="fill:rgb(97,97,97);fill-rule:nonzero;"/>
    <path id="path28239" d="M113.28,88.55L111.28,93.92C111.28,93.92 112.65,96.72 114.93,98.86C116.93,100.75 118.22,101.59 120.32,101.56C123.42,101.51 128.56,97.74 127.29,96.24C126.25,95.02 122.35,91.7 122.35,91.7L113.28,88.55Z" style="fill:rgb(224,224,224);fill-rule:nonzero;"/>
    <path id="path28241" d="M81.15,56.77C96.58,57.52 105.57,64.49 108.72,71.08C111.87,77.67 112.99,80.97 114.04,82.62C115.09,84.27 123.48,92.66 123.48,92.66C123.48,92.66 121.57,94.55 117.56,95.21C114.34,95.73 111.94,95.06 111.94,95.06C111.94,95.06 111.32,94.22 110.82,93.46C110.47,92.94 109.92,92.21 108.95,92.86C107.69,93.7 104.76,98.2 99.74,98.5C93.71,98.86 87.98,96.7 87.98,96.7C87.98,96.7 88.2,99.47 87.61,99.62C87.01,99.77 82.78,98.23 81.02,97.26C79.57,96.46 76.15,94.08 76.15,94.08C76.15,94.08 77.8,99.32 77.35,99.85C76.9,100.37 73.64,99.4 71.43,97.6C69.94,96.39 64.01,91.23 64.01,91.23C64.01,91.23 65.81,96.7 65.36,97.3C64.91,97.9 60.85,96.1 58.02,92.58C54.95,88.76 53.23,84.79 52.03,78.95C50.91,73.47 50.46,71.53 49.78,69.59C49.1,67.65 47.83,66.67 47.83,66.67C47.83,66.67 51.28,66.82 52.55,66.15C53.8,65.46 67.36,56.09 81.15,56.77Z" style="fill:rgb(189,189,189);fill-rule:nonzero;"/>
    <path id="path28243" d="M49.31,84.78C49.24,85.38 37.15,85.3 33.85,85.45C30.55,85.6 23.09,87.47 20.02,87.85C16.95,88.22 11.86,89.2 9.46,88.82C7.06,88.45 6.84,87.85 6.91,87.47C6.98,87.1 9.83,87.51 10.43,86.65C11.03,85.79 10.39,84.85 9.53,85.34C8.67,85.83 6.81,86.13 5.61,85.98C4.41,85.83 3.69,84.78 3.69,84.14C3.69,83.5 5.49,83.3 6.21,82.58C7.17,81.62 7.73,80.38 7.58,78.26C7.48,76.86 7.03,76.21 7.31,76.06C7.71,75.84 8.76,75.76 9.68,73.39C10.43,71.47 11.95,67.91 14.8,65.77C18.01,63.36 20.74,61.83 25.94,61.05C31.03,60.29 31.45,60.69 31.45,60.69C31.45,60.69 33.1,55.97 37.67,56.79C42.24,57.61 40.78,63.67 40.78,63.67L38.73,63.35C38.73,63.35 39.32,60.28 37.14,59.9C34.97,59.53 34.03,62.41 34.03,62.41C34.03,62.41 26.02,63.2 22.76,65.14C19.16,67.29 11.52,73.68 13.62,78.29C15.72,82.9 25.49,78.36 27.18,77.24C28.87,76.12 33.87,72.54 36.88,73.28C39.88,74.02 40.86,76.35 43.65,78.8C45.3,80.27 49.42,83.81 49.31,84.78Z" style="fill:rgb(224,224,224);fill-rule:nonzero;"/>
    <path id="path28245" d="M24.07,74.78C23.43,76.47 21.97,77.21 20.17,76.76C18.62,76.37 17.77,73.69 18.82,71.74C19.76,69.99 21.59,69.9 22.94,70.39C24.44,70.94 24.76,72.96 24.07,74.78Z" style="fill:rgb(33,33,33);fill-rule:nonzero;"/>
    <path id="path28249" d="M33.73,113.02C33.82,113.92 37.06,114.33 36.91,112.57C36.76,110.81 33.62,111.93 33.73,113.02Z" style="fill:rgb(223,223,223);fill-rule:nonzero;"/>
    <path id="path28251" d="M35.64,115.83C36.08,116.69 39.68,115.87 38.82,114.11C37.96,112.35 35.04,114.67 35.64,115.83Z" style="fill:rgb(223,223,223);fill-rule:nonzero;"/>
    <path id="path28253" d="M39.09,118.04C39.45,118.91 43.51,117.55 42.76,116.24C42.01,114.93 38.41,116.43 39.09,118.04Z" style="fill:rgb(223,223,223);fill-rule:nonzero;"/>
    <path id="path28255" d="M40.81,120.17C41.42,121.2 45.6,119.46 44.37,118.07C43.14,116.68 40.17,119.09 40.81,120.17Z" style="fill:rgb(223,223,223);fill-rule:nonzero;"/>
    <path id="path28257" d="M79.46,113.66C79.75,114.45 82.79,113.7 82.46,112.61C82.13,111.52 79.16,112.83 79.46,113.66Z" style="fill:rgb(224,224,224);fill-rule:nonzero;"/>
    <path id="path28259" d="M82.04,115.53C82.63,115.97 85.45,114.18 84.14,113.47C82.83,112.76 81.15,114.86 82.04,115.53Z" style="fill:rgb(224,224,224);fill-rule:nonzero;"/>
    <path id="path28261" d="M85.04,116.05C86.26,116.42 88.45,114.14 86.91,113.69C85.38,113.24 84.18,115.79 85.04,116.05Z" style="fill:rgb(224,224,224);fill-rule:nonzero;"/>
    <path id="path28263" d="M95.9,114.97C95.03,114.24 92.3,115.83 93.13,116.92C93.95,118 97.06,115.94 95.9,114.97Z" style="fill:rgb(224,224,224);fill-rule:nonzero;"/>
    <path id="path28265" d="M95.85,118.65C97.14,119.35 99.64,116.11 98.2,115.68C96.76,115.26 94.82,118.09 95.85,118.65Z" style="fill:rgb(224,224,224);fill-rule:nonzero;"/>
    <path id="path28267" d="M101.11,116.02C99.51,115.79 97.59,118.75 99.31,118.87C101.03,118.99 102.64,116.24 101.11,116.02Z" style="fill:rgb(224,224,224);fill-rule:nonzero;"/>
    <g id="g28271">
        <path id="path28269" d="M65.79,84.95C65.48,84.95 65.16,84.81 64.95,84.54L62.7,81.69C62.34,81.23 62.41,80.56 62.88,80.2C63.34,79.84 64.01,79.92 64.37,80.38L66.62,83.23C66.98,83.69 66.9,84.36 66.44,84.72C66.25,84.87 66.02,84.95 65.79,84.95Z" style="fill:rgb(158,158,158);fill-rule:nonzero;"/>
    </g>
    <g id="g28275">
        <path id="path28273" d="M77.77,86.22C77.53,86.22 77.29,86.14 77.1,85.98L73.35,82.91C72.89,82.54 72.83,81.87 73.2,81.41C73.57,80.96 74.24,80.89 74.7,81.26L78.45,84.33C78.91,84.7 78.97,85.37 78.6,85.83C78.39,86.09 78.08,86.22 77.77,86.22Z" style="fill:rgb(158,158,158);fill-rule:nonzero;"/>
    </g>
    <g id="g28279">
        <path id="path28277" d="M82.12,76.78C81.91,76.78 81.7,76.72 81.51,76.59L77.76,73.97C77.28,73.63 77.16,72.97 77.5,72.49C77.84,72.01 78.5,71.89 78.98,72.23L82.73,74.85C83.21,75.19 83.33,75.85 82.99,76.33C82.78,76.62 82.45,76.78 82.12,76.78Z" style="fill:rgb(158,158,158);fill-rule:nonzero;"/>
    </g>
    <g id="g28283">
        <path id="path28281" d="M93.5,73.61C93.28,73.61 93.06,73.54 92.88,73.41L89.06,70.64C88.58,70.29 88.48,69.63 88.82,69.15C89.16,68.67 89.83,68.57 90.31,68.91L94.13,71.68C94.61,72.03 94.71,72.69 94.37,73.17C94.16,73.46 93.83,73.61 93.5,73.61Z" style="fill:rgb(158,158,158);fill-rule:nonzero;"/>
    </g>
    <g id="g28287">
        <path id="path28285" d="M95.6,83.22C95.43,83.22 95.26,83.18 95.1,83.1L91.73,81.3C91.21,81.02 91.02,80.38 91.29,79.86C91.57,79.34 92.21,79.15 92.73,79.42L96.1,81.22C96.62,81.5 96.81,82.14 96.54,82.66C96.35,83.02 95.98,83.22 95.6,83.22Z" style="fill:rgb(158,158,158);fill-rule:nonzero;"/>
    </g>
    <g id="g28291">
        <path id="path28289" d="M105.02,76.66C104.85,76.64 104.69,76.58 104.54,76.47L101.43,74.26C100.95,73.92 100.84,73.25 101.18,72.78C101.52,72.3 102.18,72.19 102.66,72.53L105.77,74.74C106.25,75.08 106.36,75.75 106.02,76.22C105.79,76.55 105.4,76.71 105.02,76.66Z" style="fill:rgb(158,158,158);fill-rule:nonzero;"/>
    </g>
</svg>
